favicon.svg

<svg width="32" height="32" viewBox="0 0 32 32" fill="none" xmlns="http://www.w3.org/2000/svg">
<path d="M32 16C32 24.8366 24.8366 32 16 32C7.16344 32 0 24.8366 0 16C0 7.16344 7.16344 0 16 0C24.8366 0 32 7.16344 32 16Z" fill="#3D1357"/>
<path d="M18.7299 7.04242C18.0924 6.87016 17.4286 7.2182 17.2449 7.81586L12.4449 23.5659C12.2611 24.1635 12.6324 24.7858 13.2699 24.958C13.9074 25.1303 14.5711 24.7823 14.7549 24.1846L19.5549 8.43461C19.7386 7.83695 19.3674 7.21469 18.7299 7.04242ZM21.7524 11.2647C21.2836 11.7041 21.2836 12.4178 21.7524 12.8573L25.1011 16.0002L21.7486 19.1432C21.2799 19.5827 21.2799 20.2963 21.7486 20.7358C22.2174 21.1752 22.9786 21.1752 23.4474 20.7358L27.6474 16.7983C28.1161 16.3588 28.1161 15.6452 27.6474 15.2057L23.4474 11.2682C22.9786 10.8287 22.2174 10.8287 21.7486 11.2682L21.7524 11.2647ZM10.2511 11.2647C9.78237 10.8252 9.02112 10.8252 8.55237 11.2647L4.35237 15.2022C3.88362 15.6416 3.88362 16.3553 4.35237 16.7948L8.55237 20.7323C9.02112 21.1717 9.78237 21.1717 10.2511 20.7323C10.7199 20.2928 10.7199 19.5791 10.2511 19.1397L6.89862 16.0002L10.2511 12.8573C10.7199 12.4178 10.7199 11.7041 10.2511 11.2647Z" fill="#FBFF2F"/>
</svg>

<svg width="32" height="32" fill="none" xmlns="http://www.w3.org/2000/svg"><path d="M32 16c0 8.837-7.163 16-16 16S0 24.837 0 16 7.163 0 16 0s16 7.163 16 16Z" fill="#3D1357"/><path d="M18.73 7.042c-.638-.172-1.301.176-1.485.774l-4.8 15.75c-.184.598.187 1.22.825 1.392.637.172 1.301-.176 1.485-.773l4.8-15.75c.184-.598-.188-1.22-.825-1.393Zm3.022 4.223a1.078 1.078 0 0 0 0 1.592L25.102 16l-3.353 3.143a1.078 1.078 0 0 0 0 1.593c.468.44 1.23.44 1.698 0l4.2-3.938a1.078 1.078 0 0 0 0-1.592l-4.2-3.938a1.26 1.26 0 0 0-1.698 0l.003-.003Zm-11.5 0a1.26 1.26 0 0 0-1.7 0l-4.2 3.937a1.078 1.078 0 0 0 0 1.593l4.2 3.937c.47.44 1.23.44 1.7 0a1.078 1.078 0 0 0 0-1.592L6.898 16l3.352-3.143a1.078 1.078 0 0 0 0-1.592Z" fill="#FBFF2F"/></svg>
